papirus/48x48/apps/preferences-desktop-peripherals.svg

<?xml version="1.0" encoding="UTF-8" standalone="no"?>
<!-- Created with Inkscape (http://www.inkscape.org/) -->
<svg id="svg2817" xmlns:rdf="http://www.w3.org/1999/02/22-rdf-syntax-ns#" xmlns="http://www.w3.org/2000/svg" height="48" width="48" version="1.0" xmlns:cc="http://creativecommons.org/ns#" xmlns:xlink="http://www.w3.org/1999/xlink" xmlns:dc="http://purl.org/dc/elements/1.1/">
 <metadata id="metadata57">
  <rdf:RDF>
   <cc:Work rdf:about="">
    <dc:format>image/svg+xml</dc:format>
    <dc:type rdf:resource="http://purl.org/dc/dcmitype/StillImage"/>
    <dc:title/>
   </cc:Work>
  </rdf:RDF>
 </metadata>
 <g id="layer7" display="none" transform="translate(-52.273 -2.186)">
  <rect id="rect4169" display="inline" rx="9" ry="9" height="44" width="44" y="2" x="2" fill="#abe1ad"/>
 </g>
 <rect id="rect4203" ry="20" rx="20" transform="matrix(0,-1,-1,0,0,0)" height="40" width="40" y="-44" x="-44" fill="#5c5c5c"/>
 <g id="g4248" opacity=".2" transform="translate(0,2)">
  <path id="path4250" d="m24 9v11.667h-9v-3.5c0-3.5 4.5-8.1667 9-8.1667"/>
  <path id="path4252" d="m23.959 9.0001v8.9064h-8.9589v10.797c0 4.741 3.375 8.2968 9 8.2968 5.625 0.001 9-3.555 9-8.296v-11.217c0-3.637-4.521-8.4859-9.041-8.4859z"/>
 </g>
 <path id="rect3436-2" opacity=".2" d="m24 4c-11.08 0-20 8.92-20 20 0 0.168-0.004 0.333 0 0.5 0.2644-10.846 9.088-19.5 20-19.5s19.736 8.654 20 19.5c0.004-0.167 0-0.332 0-0.5 0-11.08-8.92-20-20-20z" fill="#fff"/>
 <g id="g4244" transform="translate(0,1)">
  <path id="path61" d="m24 9v11.667h-9v-3.5c0-3.5 4.5-8.1667 9-8.1667" fill="#f2f2f2"/>
  <path id="path63" d="m23.959 9.0001v8.9064h-8.9589v10.797c0 4.741 3.375 8.2968 9 8.2968 5.625 0.001 9-3.555 9-8.296v-11.217c0-3.637-4.521-8.4859-9.041-8.4859z" fill="#f9f9f9"/>
 </g>
 <path id="path69" d="m24 16c0.551 0 1 0.576 1 1.2857v3.4286c0 0.709-0.449 1.285-1 1.285s-1-0.576-1-1.286v-3.4286c0-0.709 0.449-1.285 1-1.285" fill="#4d4d4d"/>
 <path id="rect4218" opacity=".3" d="m4.0117 23.5c-0.0041 0.167-0.0117 0.332-0.0117 0.5 0 11.08 8.92 20 20 20s20-8.92 20-20c0-0.168-0.008-0.333-0.012-0.5-0.264 10.846-9.076 19.5-19.988 19.5s-19.724-8.654-19.988-19.5z"/>
</svg>

<?xml version="1.0" encoding="UTF-8" standalone="no"?>
<!-- Created with Inkscape (http://www.inkscape.org/) -->

<svg
   xmlns:dc="http://purl.org/dc/elements/1.1/"
   xmlns:cc="http://creativecommons.org/ns#"
   xmlns:rdf="http://www.w3.org/1999/02/22-rdf-syntax-ns#"
   xmlns:svg="http://www.w3.org/2000/svg"
   xmlns="http://www.w3.org/2000/svg"
   xmlns:sodipodi="http://sodipodi.sourceforge.net/DTD/sodipodi-0.dtd"
   xmlns:inkscape="http://www.inkscape.org/namespaces/inkscape"
   id="svg2817"
   height="48"
   width="48"
   version="1.0"
   inkscape:version="0.91 r13725"
   sodipodi:docname="preferences-desktop-peripherals.svg">
  <defs
     id="defs18" />
  <sodipodi:namedview
     pagecolor="#ffffff"
     bordercolor="#666666"
     borderopacity="1"
     objecttolerance="10"
     gridtolerance="10"
     guidetolerance="10"
     inkscape:pageopacity="0"
     inkscape:pageshadow="2"
     inkscape:window-width="1600"
     inkscape:window-height="849"
     id="namedview16"
     showgrid="false"
     inkscape:zoom="4.9166667"
     inkscape:cx="-17.491525"
     inkscape:cy="24"
     inkscape:window-x="0"
     inkscape:window-y="0"
     inkscape:window-maximized="1"
     inkscape:current-layer="svg2817" />
  <metadata
     id="metadata57">
    <rdf:RDF>
      <cc:Work
         rdf:about="">
        <dc:format>image/svg+xml</dc:format>
        <dc:type
           rdf:resource="http://purl.org/dc/dcmitype/StillImage" />
        <dc:title />
      </cc:Work>
    </rdf:RDF>
  </metadata>
  <g
     id="layer7"
     display="none"
     transform="translate(-52.273 -2.186)">
    <rect
       id="rect4169"
       display="inline"
       rx="9"
       ry="9"
       height="44"
       width="44"
       y="2"
       x="2"
       fill="#abe1ad" />
  </g>
  <rect
     style="fill:#5c5c5c"
     id="rect4203"
     ry="20"
     rx="20"
     transform="matrix(0,-1,-1,0,0,0)"
     height="40"
     width="40"
     y="-44"
     x="-44" />
  <g
     style="opacity:0.2"
     id="g4248"
     transform="translate(0,2)">
    <path
       inkscape:connector-curvature="0"
       id="path4250"
       d="m 24,9 0,11.667 -9,0 0,-3.5 c 0,-3.5 4.5,-8.1667 9,-8.1667" />
    <path
       inkscape:connector-curvature="0"
       id="path4252"
       d="m 23.959,9.0001 0,8.9064 -8.9589,0 0,10.797 c 0,4.741 3.375,8.2968 9,8.2968 5.625,10e-4 9,-3.555 9,-8.296 l 0,-11.217 c 0,-3.637 -4.521,-8.4859 -9.041,-8.4859 z" />
  </g>
  <path
     inkscape:connector-curvature="0"
     id="rect3436-2"
     d="M 24,4 C 12.92,4 4,12.92 4,24 4,24.168 3.996,24.333 4,24.5 4.2644,13.654 13.088,5 24,5 34.912,5 43.736,13.654 44,24.5 44.004,24.333 44,24.168 44,24 44,12.92 35.08,4 24,4 Z"
     style="opacity:0.1;fill:#ffffff" />
  <g
     id="g4244"
     transform="translate(0,1)">
    <path
       style="fill:#f2f2f2"
       inkscape:connector-curvature="0"
       id="path61"
       d="m 24,9 0,11.667 -9,0 0,-3.5 c 0,-3.5 4.5,-8.1667 9,-8.1667" />
    <path
       style="fill:#f9f9f9"
       inkscape:connector-curvature="0"
       id="path63"
       d="m 23.959,9.0001 0,8.9064 -8.9589,0 0,10.797 c 0,4.741 3.375,8.2968 9,8.2968 5.625,10e-4 9,-3.555 9,-8.296 l 0,-11.217 c 0,-3.637 -4.521,-8.4859 -9.041,-8.4859 z" />
  </g>
  <path
     style="fill:#4d4d4d"
     inkscape:connector-curvature="0"
     id="path69"
     d="m 24,16 c 0.551,0 1,0.576 1,1.2857 l 0,3.4286 c 0,0.709 -0.449,1.285 -1,1.285 -0.551,0 -1,-0.576 -1,-1.286 l 0,-3.4286 c 0,-0.709 0.449,-1.285 1,-1.285" />
  <path
     style="opacity:0.3"
     inkscape:connector-curvature="0"
     id="rect4218"
     d="M 4.0117,23.5 C 4.0076,23.667 4,23.832 4,24 4,35.08 12.92,44 24,44 35.08,44 44,35.08 44,24 44,23.832 43.992,23.667 43.988,23.5 43.724,34.346 34.912,43 24,43 13.088,43 4.276,34.346 4.012,23.5 Z" />
</svg>
